X:1
T:Sunshine on the Hill
T:Charles Hutchinson Gabriel
T:Sunshine on the Hill
T:Public Domain
T:Public Domain
T:Public Domain
C:Charles Hutchinson Gabriel
Z:Public Domain
%%score ( 1 2 ) ( 3 4 )
L:1/8
M:9/8
K:G
V:1 treble 
V:2 treble 
V:3 bass 
V:4 bass 
V:1
 [B,D]2 [^A,^C] | [^A,E]3 [B,D]3 [B,G]2 [B,=A] | [CG]3 [CF]3 [CE]2 [C_E] | %3
w: 1.~There are|sha- dows in the|val- ley, Where our|
w: 2.~There are|sha- dows in the|val- ley, But we|
w: 3.~Oh, the|sha- dows in the|val- ley Like a|
 [CD]3- [CD]2 [DF] [DA]2 [Dc] | [DB]6 [B,D]2 [^A,^C] | [A,E]3 [B,D]3 [B,G]2 [B,A] | %6
w: tir- * ed feet must|go; But we|hear the peace- ful|
w: breathe * the sweet per-|fume Of the|ros- es on the|
w: dream * will pass a-|way; They will|van- ish at the|
 [CG]3 [CF]3 [CF]2 [B,G] | [DA]3- [DA]2 [Dc] [DB]2 [CA] | [B,G]6 [B,G]2 [=FG] | %9
w: wa- ters, As they|mur- * mur soft and|low; And our|
w: mount- ain, In their|love- * ly ver- nal|bloom; And a-|
w: dawn- ing Of the|bright * and glor- ious|day; Ev- en|
 [EG]3 [Ec]3 [EG]2 [EA] | [^DB]3 [DF]3 [DF]2 [DF] | [EG]3- [EG]2 [GB] [GA]2 [EG] | %12
w: Shep- herd whis- pers|gent- ly As He|leads * us on- ward|
w: gain our Shep- herd|whis- pers, As He|leads * us on- ward|
w: now there comes an|e- cho, And we|feel * its ma- gic|
 [FA]6 [GB]2 [Gc] | [Gd]3- [Gd]2 [Ge] [Gd]2 [Gc] | [GB] [Gd]3- [Gd]2 G2 [GA] | %15
w: still; “There are|sha- * dows in the|val- ley, * But ’tis|
w: still: “There are|sha- * dows in the|val- ley, * But ’tis|
w: thrill: “There are|sha- * dows in the|val- ley, * But ’tis|
 [GB] [Fc]3- [Fc]2 [FB]2 [DA] | [DG]6 z3 ||"^Refrain" [Gd] [Gd]3- [Gd]2 [Ge]2 [Gd] | %18
w: shine on * the hill.”|||
w: shine on * the hill.”|Sun-|shine on * the hill,|
w: shine on * the hill.”|||
 [Gd]6 [DG]2 [DA] | [GB] [GB]3- [GB]2 [Gc]2 G | [GB]6 [GB]2 [Gc] | [Gd]3- [Gd]2 [Ge] [Gd]2 [Gc] | %22
w: ||||
w: There is sun-|shine on * the hill|are sha- dows|in * the val- ley,|
w: ||||
 [GB] [Gd]3- [Gd]2 [DG]2 [EA] | [DB] [Ec]3- [Ec]2 [DB]2 [CA] | [B,G]6 |] %25
w: |||
w: But ’tis * sun- shine|on the * hill.” *||
w: |||
V:2
 x3 | x9 | x9 | x9 | x9 | x9 | x9 | x9 | x9 | x9 | x9 | x9 | x9 | x9 | x6 G2 x | x9 | x9 || x9 | %18
w: ||||||||||||||sun-||||
w: ||||||||||||||sun-||||
w: ||||||||||||||sun-||||
 x9 | x8 G | x9 | x9 | x9 | x9 | x6 |] %25
w: |||||||
w: |“There||||||
w: |||||||
V:3
 [G,,G,]2 [G,,G,] | [G,,G,]3 [G,,G,]3 [G,,D,]2 [G,,G,] | [D,A,]3 [D,A,]3 [D,G,]2 [D,G,] | %3
 [D,F,]3- [D,F,]2 [D,A,] [D,F,]2 [D,A,] | G,6 [G,,G,]2 [G,,G,] | %5
 [G,,G,]3 [G,,G,]3 [G,,D,]2 [G,,G,] | [D,A,]3 [D,A,]3 [D,A,]2 [D,G,] | %7
 [D,F,]3- [D,F,]2 [D,A,] [D,G,]2 [D,F,] | [G,,G,]6 [G,,G,]2 [B,,G,] | %9
 [C,G,]3 [C,G,]3 [C,G,]2 [C,E,] | [B,,F,]3 [B,,B,]3 [B,,B,]2 [B,,B,] | %11
 [E,B,]3- [E,B,]2 [E,B,] [A,,^C]2 [A,,C] | [D,D]6 [G,D]2 [G,A,] | %13
 [G,B,]3- [G,B,]2 [G,C] [G,B,]2 [G,E] | [G,D] [G,B,]3- [G,B,]2 [B,,D]2 [C,E] | %15
 [D,D] [D,E]3- [D,E]2 [D,D]2 [D,C] | [G,,B,]6 z3 || [G,B,] [G,B,]3- [G,B,]2 [G,C]2 [G,B,] | %18
 [G,B,]6 [G,B,]2 [G,C] | [G,D] [G,D]3- [G,D]2 [G,E]2 [G,_E] | [G,D]6 [G,D]2 [G,A,] | %21
 [G,B,]3- [G,B,]2 [G,C] [G,B,]2 [G,E] | [G,D] [G,B,]3- [G,B,]2 [B,,G,]2 [B,,G,] | %23
 [E,G,] [D,F,]3- [D,F,]2 [D,F,]2 [D,F,] | [G,,G,]6 |] %25
V:4
 x3 | x9 | x9 | x9 | G,6 x3 | x9 | x9 | x9 | x9 | x9 | x9 | x9 | x9 | x9 | x9 | x9 | x9 || x9 | %18
 x9 | x9 | x9 | x9 | x9 | x9 | x6 |] %25

